assets/img/buttons/button-apple.svg

<svg width="26" height="30" viewBox="0 0 26 30" fill="none" xmlns="http://www.w3.org/2000/svg">
<path d="M21.5964 15.9539C21.5614 12.1639 24.7792 10.32 24.9264 10.2342C23.104 7.64359 20.2793 7.28963 19.2867 7.26141C16.9143 7.01799 14.6131 8.64549 13.4046 8.64549C12.172 8.64549 10.311 7.28493 8.30527 7.32491C5.72424 7.36372 3.30965 8.8207 1.98537 11.0832C-0.747631 15.6964 1.29066 22.4757 3.90908 26.2046C5.21889 28.0308 6.74942 30.0699 8.75273 29.9981C10.7126 29.9194 11.4447 28.7799 13.8099 28.7799C16.1533 28.7799 16.8408 29.9981 18.8839 29.9523C20.9873 29.9194 22.3116 28.1178 23.5756 26.2751C25.0892 24.182 25.6971 22.1205 25.7212 22.0147C25.6718 21.9983 21.6362 20.4966 21.5964 15.9539Z" fill="url(#paint0_linear_7622_5540)"/>
<path d="M17.7369 4.80841C18.791 3.52311 19.5123 1.77449 19.312 0C17.7863 0.0658525 15.8783 1.02894 14.7796 2.28602C13.8075 3.39375 12.9391 5.2094 13.1634 6.91686C14.8773 7.04151 16.6369 6.07371 17.7369 4.80841Z" fill="url(#paint1_linear_7622_5540)"/>
<defs>
<linearGradient id="paint0_linear_7622_5540" x1="6.5287" y1="2.5" x2="25.0341" y2="22.2314" gradientUnits="userSpaceOnUse">
<stop stop-color="#BC00B5"/>
<stop offset="1" stop-color="#00A9DE"/>
</linearGradient>
<linearGradient id="paint1_linear_7622_5540" x1="6.5287" y1="2.5" x2="25.0341" y2="22.2314" gradientUnits="userSpaceOnUse">
<stop stop-color="#BC00B5"/>
<stop offset="1" stop-color="#00A9DE"/>
</linearGradient>
</defs>
</svg>

<svg width="26" height="30" fill="none" xmlns="http://www.w3.org/2000/svg"><path d="M21.596 15.954c-.035-3.79 3.183-5.634 3.33-5.72-1.822-2.59-4.647-2.944-5.64-2.973-2.372-.243-4.673 1.384-5.881 1.384-1.233 0-3.094-1.36-5.1-1.32-2.58.039-4.995 1.496-6.32 3.758-2.733 4.613-.694 11.393 1.924 15.122 1.31 1.826 2.84 3.865 4.844 3.793 1.96-.079 2.692-1.218 5.057-1.218 2.343 0 3.03 1.218 5.074 1.172 2.103-.033 3.428-1.834 4.692-3.677 1.513-2.093 2.121-4.154 2.145-4.26-.05-.017-4.085-1.518-4.125-6.061Z" fill="url(#a)"/><path d="M17.737 4.808C18.79 3.523 19.512 1.774 19.312 0c-1.526.066-3.434 1.029-4.532 2.286-.973 1.108-1.84 2.923-1.617 4.63 1.714.126 3.474-.842 4.574-2.108Z" fill="url(#b)"/><defs><linearGradient id="a" x1="6.529" y1="2.5" x2="25.034" y2="22.231" gradientUnits="userSpaceOnUse"><stop stop-color="#BC00B5"/><stop offset="1" stop-color="#00A9DE"/></linearGradient><linearGradient id="b" x1="6.529" y1="2.5" x2="25.034" y2="22.231" gradientUnits="userSpaceOnUse"><stop stop-color="#BC00B5"/><stop offset="1" stop-color="#00A9DE"/></linearGradient></defs></svg>
